svg_80x80/graphql.svg

<svg viewBox="0 0 80 80" xmlns="http://www.w3.org/2000/svg">
<rect width="100%" height="100%" fill="#E10098"/>
<path fill-rule="evenodd" clip-rule="evenodd" d="M34.4137 66.2438L20.4247 58.1577C19.323 59.3109 17.7708 60.0292 16.0511 60.0292C12.7092 60.0292 10 57.3168 10 53.9709C10 51.1194 11.9678 48.7279 14.618 48.0835V31.9165C11.9678 31.2721 10 28.8807 10 26.0292C10 22.6833 12.7092 19.9709 16.0511 19.9709C17.7708 19.9709 19.3229 20.6891 20.4246 21.8423L34.4137 13.7561C34.2569 13.2174 34.1728 12.6477 34.1728 12.0583C34.1728 8.71239 36.882 6 40.2239 6C43.5658 6 46.275 8.71239 46.275 12.0583C46.275 12.6477 46.1909 13.2174 46.0341 13.7561L60.0211 21.8411C61.1226 20.6886 62.6743 19.9709 64.3934 19.9709C67.7353 19.9709 70.4444 22.6833 70.4444 26.0292C70.4444 28.8795 68.4783 31.2701 65.8298 31.9157V48.0844C68.4783 48.73 70.4444 51.1206 70.4444 53.9709C70.4444 57.3168 67.7353 60.0292 64.3934 60.0292C62.6742 60.0292 61.1226 59.3115 60.021 58.1589L46.0341 66.2438C46.1909 66.7826 46.275 67.3523 46.275 67.9417C46.275 71.2876 43.5658 74 40.2239 74C36.882 74 34.1728 71.2876 34.1728 67.9417C34.1728 67.3523 34.2569 66.7826 34.4137 66.2438ZM40.2239 18.1166C40.8126 18.1166 41.3816 18.0324 41.9197 17.8754L60.2103 49.5934C59.3906 50.3787 58.7911 51.3925 58.5138 52.5326H21.9306C21.6536 51.3935 21.0549 50.3805 20.2363 49.5955L38.5281 17.8755C39.0662 18.0324 39.6352 18.1166 40.2239 18.1166ZM21.9306 55.4091C21.9095 55.4958 21.8866 55.5818 21.8618 55.667L35.8516 63.7536C36.9532 62.6011 38.5048 61.8834 40.2239 61.8834C41.943 61.8834 43.4946 62.6011 44.5962 63.7536L58.5831 55.6687C58.5581 55.5829 58.535 55.4964 58.5138 55.4091H21.9306ZM17.491 31.9149C20.1377 31.2681 22.1022 28.8783 22.1022 26.0292C22.1022 25.4404 22.0183 24.8712 21.8618 24.333L35.8516 16.2464C35.9133 16.3109 35.9764 16.3741 36.0408 16.4358L17.7497 48.1546C17.6642 48.1296 17.578 48.1065 17.491 48.0852V31.9149ZM62.6976 48.1537C62.7832 48.1288 62.8696 48.1056 62.9568 48.0844V31.9157C60.3084 31.2701 58.3423 28.8795 58.3423 26.0292C58.3423 25.4398 58.4263 24.8701 58.5831 24.3313L44.5962 16.2464C44.5345 16.3109 44.4714 16.3741 44.407 16.4358L62.6976 48.1537Z" fill="white"/>
</svg>

<svg xmlns="http://www.w3.org/2000/svg" viewBox="0 0 80 80">
  <rect width="100%" height="100%" fill="#E10098"/>
  <path fill="#fff" fill-rule="evenodd" d="m34.41 66.24-13.99-8.08a6.05 6.05 0 1 1-5.8-10.07V31.91a6.06 6.06 0 1 1 5.8-10.08l14-8.08A6.07 6.07 0 0 1 40.21 6a6.05 6.05 0 0 1 5.81 7.76l14 8.08a6.05 6.05 0 1 1 5.8 10.07v16.17a6.06 6.06 0 1 1-5.8 10.08l-14 8.08a6.07 6.07 0 0 1-5.8 7.76 6.05 6.05 0 0 1-5.82-7.76Zm5.81-48.12c.6 0 1.16-.09 1.7-.24l18.29 31.71a6.05 6.05 0 0 0-1.7 2.94H21.93a6.05 6.05 0 0 0-1.7-2.93l18.3-31.72c.54.15 1.1.24 1.7.24ZM21.93 55.4a6 6 0 0 1-.07.26l14 8.08a6.03 6.03 0 0 1 8.74 0l13.98-8.08a5.93 5.93 0 0 1-.07-.26H21.93ZM17.5 31.9a6.06 6.06 0 0 0 4.37-7.58l14-8.08.18.19-18.29 31.71a6.04 6.04 0 0 0-.26-.06V31.9Zm45.2 16.24.27-.07V31.92a6.06 6.06 0 0 1-4.38-7.59L44.6 16.25l-.2.19 18.3 31.71Z" clip-rule="evenodd"/>
</svg>
